X:1
T:Dawn, 847.847
T:Dawn, 847.847
T:Claude Goudimel, 1565
T:Public Domain Courtesy of the Cyber Hymnal™
C:Claude Goudimel, 1565
Z:Public Domain
Z:Courtesy of the Cyber Hymnal™
%%score ( 1 2 ) ( 3 4 )
L:1/8
Q:1/4=120
M:4/4
K:Bb
V:1 treble 
V:2 treble 
V:3 bass 
V:4 bass 
V:1
 [GB]4 [FA]4 | [EG]2 [EA]2 [FB]2 [Fc]2 | [Fd]4 [Fc]4 | z2 [Fd]4 [Fc]2 | B4 [^FA]4 | %5
 [Gc]2 [Gc]2 [Gd]4- | [Gd]2 [GB]2 [Gc]2 [^FA]2 | [DG]8 | [Bd]4 [Ad]4 | [Gc]2 [FB]2 [EG]2 [EA]2 | %10
 B4 [^FA]4 | z2 [GB]4 [FA]2 | [EG]4 [DF]4 | [DB]4 [Fd]4 |[M:3/2] [Fc]2 [DB]2 G4 [^FA]4 | [DG]12 |] %16
V:2
 x8 | x8 | x8 | x8 | D2 G2 x4 | x8 | x8 | x8 | x8 | x8 | D2 G2 x4 | x8 | x8 | x8 | %14
[M:3/2] x4 G4 x4 | x12 |] %16
V:3
 [G,D]4 [D,D]4 | [E,B,]2 [C,C]2 [D,B,]2 [F,A,]2 | [B,,B,]4 [F,A,]4 | z2 B,4 [F,A,]2 | %4
 B,2 C2 [D,D]4 | [C,E]2 [C,E]2 [B,,D]4- | [B,,D]2 [E,E]2 [C,E]2 [D,D]2 | [G,B,]8 | [G,D]4 [F,D]4 | %9
 [E,E]2 [D,F]2 [E,B,]2 [C,C]2 | [G,D]4 [D,D]4 | z2 [G,B,]4 [D,B,]2 | [E,B,]4 [B,,B,]4 | %13
 [G,B,]4 [D,A,]4 |[M:3/2] [F,A,]2 [G,B,]2 [E,B,]4 [D,D]4 | [G,B,]12 |] %16
V:4
 x8 | x8 | x8 | x2 B,4 x2 | G,4 x4 | x8 | x8 | x8 | x8 | x8 | x8 | x8 | x8 | x8 |[M:3/2] x12 | %15
 x12 |] %16

